X: 4
T: John Stenson's
R: reel
M: 4/4
L: 1/8
K: Gmaj
G|GABG A2 BA|GABG AGED|GABG ABce|d2 BG AGED|
GABG A2 BA|GABG AGED|c2 cB cedc|BGAF G3||
G|d2 Bc d2 Bc|d2 BG AGEG|d2 Bc d2 BG|AcBA GEBc|
d2 Bc d2 Bc|d2 BG AGED|c2 cB cedc|BGAF G3||

